packages/kaspersky-hexa-ui-icons/src/iconsSVGs/24/Cisco.svg

<svg width="24" height="24" viewBox="0 0 24 24" fill="none" xmlns="http://www.w3.org/2000/svg">
<path d="M7.22052 6.69816C7.22052 6.43481 7.00544 6.22095 6.74178 6.22095C6.47782 6.22095 6.26274 6.43481 6.26274 6.69816V11.7737C6.26274 12.0385 6.47782 12.2524 6.74178 12.2524C7.00544 12.2524 7.22052 12.0385 7.22052 11.7737V6.69816Z" fill="black"/>
<path d="M4.1115 8.0224C4.37516 8.0224 4.59024 8.23657 4.59024 8.49992V10.8203C4.59024 11.0852 4.37516 11.2987 4.1115 11.2987C3.84754 11.2987 3.63246 11.0852 3.63246 10.8203V8.49992C3.63246 8.23657 3.84754 8.0224 4.1115 8.0224Z" fill="black"/>
<path d="M1.95998 9.81684C1.95998 9.55348 1.7449 9.33993 1.48124 9.33993C1.21758 9.33993 1.0022 9.55348 1.0022 9.81684V10.8201C1.0022 11.085 1.21758 11.2989 1.48124 11.2989C1.7449 11.2989 1.95998 11.085 1.95998 10.8201V9.81684Z" fill="black"/>
<path d="M11.0919 14.6767C11.4255 14.6767 11.8315 14.7888 11.8459 14.7934V13.9774C11.8172 13.9697 11.3754 13.8558 10.9058 13.8558C10.0168 13.8558 9.48154 14.3357 9.48154 15.0506C9.48154 15.6833 9.92942 15.9989 10.4665 16.1688C10.4904 16.1766 10.5186 16.1856 10.5477 16.1949C10.5916 16.209 10.6373 16.2236 10.6724 16.2354C10.9116 16.3106 11.1026 16.4224 11.1026 16.6161C11.1026 16.8327 10.882 16.9729 10.4021 16.9729C10.0224 16.9729 9.65637 16.8749 9.52557 16.8399C9.51123 16.8361 9.49971 16.833 9.49131 16.8309V17.7104C9.53867 17.7205 10.0192 17.8149 10.5322 17.8149C11.2703 17.8149 12.1148 17.4923 12.1148 16.5321C12.1148 16.0665 11.8294 15.6378 11.2034 15.4386L10.9373 15.354L10.9214 15.349C10.7606 15.2984 10.4952 15.215 10.4952 14.9898C10.4952 14.8062 10.7054 14.6767 11.0919 14.6767Z" fill="black"/>
<path fill-rule="evenodd" clip-rule="evenodd" d="M21.0193 15.8352C21.0193 16.9286 20.1751 17.8146 18.9995 17.8146C17.8239 17.8146 16.981 16.9286 16.981 15.8352C16.981 14.7436 17.8239 13.8567 18.9995 13.8567C20.1751 13.8567 21.0193 14.7436 21.0193 15.8352ZM18.9995 14.8301C18.4273 14.8301 18.0023 15.2804 18.0023 15.8352C18.0023 16.3912 18.4273 16.8413 18.9995 16.8413C19.5711 16.8413 19.9973 16.3912 19.9973 15.8352C19.9973 15.2804 19.5711 14.8301 18.9995 14.8301Z" fill="black"/>
<path d="M5.88827 15.0148L5.89762 15.0198V13.9939L5.87831 13.9881C5.76556 13.954 5.44433 13.8567 5.01805 13.8567C3.84427 13.8567 2.98272 14.6938 2.98272 15.8352C2.98272 17.0668 3.93378 17.8147 5.01805 17.8147C5.42392 17.8147 5.73947 17.7241 5.87477 17.6852L5.89762 17.6787V16.6528L5.89473 16.6544C5.84312 16.683 5.53151 16.8557 5.0874 16.8557C4.4446 16.8557 4.03033 16.4032 4.03033 15.8352C4.03033 15.2499 4.46263 14.8157 5.0874 14.8157C5.52221 14.8157 5.82267 14.9791 5.88827 15.0148Z" fill="black"/>
<path d="M15.9653 15.0198L15.9559 15.0148C15.8903 14.9791 15.5898 14.8157 15.155 14.8157C14.5303 14.8157 14.098 15.2499 14.098 15.8352C14.098 16.4032 14.5122 16.8557 15.155 16.8557C15.5992 16.8557 15.9108 16.683 15.9624 16.6544L15.9653 16.6528V17.6787L15.9424 17.6852C15.8071 17.7241 15.4916 17.8147 15.0857 17.8147C14.0014 17.8147 13.0504 17.0668 13.0504 15.8352C13.0504 14.6938 13.9119 13.8567 15.0857 13.8567C15.512 13.8567 15.8332 13.954 15.9459 13.9881L15.9653 13.9939V15.0198Z" fill="black"/>
<path d="M8.18818 13.9246H7.22368V17.7468H8.18818V13.9246Z" fill="black"/>
<path d="M9.37207 8.0224C9.63573 8.0224 9.85081 8.23657 9.85081 8.49992V10.8203C9.85081 11.0852 9.63573 11.2987 9.37207 11.2987C9.10811 11.2987 8.89303 11.0852 8.89303 10.8203V8.49992C8.89303 8.23657 9.10811 8.0224 9.37207 8.0224Z" fill="black"/>
<path d="M12.2883 9.43588C12.2086 9.37565 12.1094 9.33993 12.0021 9.33993L11.9998 9.33993C11.7365 9.34036 11.5215 9.55375 11.5215 9.81684V10.8201C11.5215 11.085 11.7369 11.2989 12.0006 11.2989C12.1073 11.2989 12.206 11.2639 12.2858 11.2046C12.4031 11.1174 12.4793 10.9778 12.4793 10.8201V9.81684C12.4793 9.66119 12.4042 9.52293 12.2883 9.43588Z" fill="black"/>
<path d="M15.1096 8.49993C15.1096 8.23657 14.8945 8.02241 14.6309 8.02241C14.3669 8.02241 14.1518 8.23657 14.1518 8.49993V10.8203C14.1518 11.0852 14.3669 11.2987 14.6309 11.2987C14.8945 11.2987 15.1096 11.0852 15.1096 10.8203V8.49993Z" fill="black"/>
<path d="M17.2611 6.22095C17.5248 6.22095 17.7399 6.43481 17.7399 6.69816V11.7737C17.7399 12.0385 17.5248 12.2524 17.2611 12.2524C16.9972 12.2524 16.7821 12.0385 16.7821 11.7737V6.69816C16.7821 6.43481 16.9972 6.22095 17.2611 6.22095Z" fill="black"/>
<path d="M20.3702 8.49993C20.3702 8.23657 20.1551 8.02241 19.8914 8.02241C19.6275 8.02241 19.4124 8.23657 19.4124 8.49993V10.8203C19.4124 11.0852 19.6275 11.2987 19.8914 11.2987C20.1551 11.2987 20.3702 11.0852 20.3702 10.8203V8.49993Z" fill="black"/>
<path d="M22.5215 9.33993C22.7839 9.33993 22.9975 9.55349 22.9975 9.81684V10.8201C22.9975 11.085 22.7839 11.2989 22.5215 11.2989C22.2578 11.2989 22.0427 11.085 22.0427 10.8201V9.81684C22.0427 9.55349 22.2578 9.33993 22.5215 9.33993Z" fill="black"/>
</svg>

<svg xmlns="http://www.w3.org/2000/svg" width="24" height="24" fill="none" viewBox="0 0 24 24"><path fill="#000" d="M7.221 6.698c0-.263-.215-.477-.479-.477s-.479.214-.479.477v5.076a.479.479 0 0 0 .958 0zM4.112 8.022c.264 0 .479.214.479.478v2.32a.479.479 0 0 1-.479.478.479.479 0 0 1-.479-.478V8.5c0-.263.215-.477.479-.477M1.96 9.817c0-.263-.215-.477-.479-.477s-.479.214-.479.477v1.003a.479.479 0 0 0 .958 0zm9.132 4.86c.334 0 .74.112.754.117v-.816c-.029-.008-.47-.122-.94-.122-.889 0-1.424.48-1.424 1.195 0 .633.448.948.985 1.118.024.008.052.017.081.026.044.014.09.029.125.041.239.075.43.187.43.381 0 .217-.221.357-.7.357-.38 0-.746-.098-.876-.133q-.022-.006-.034-.009v.88c.047.01.528.105 1.041.105.738 0 1.583-.323 1.583-1.283 0-.466-.285-.894-.911-1.093l-.266-.085-.016-.005c-.161-.051-.426-.134-.426-.359 0-.184.21-.313.597-.313"/><path fill="#000" fill-rule="evenodd" d="M21.0193 15.8352c0 1.0934-.8442 1.9794-2.0198 1.9794s-2.0185-.886-2.0185-1.9794c0-1.0916.8429-1.9785 2.0185-1.9785s2.0198.8869 2.0198 1.9785m-2.0198-1.0051c-.5722 0-.9972.4503-.9972 1.0051 0 .556.425 1.0061.9972 1.0061.5716 0 .9978-.4501.9978-1.0061 0-.5548-.4262-1.0051-.9978-1.0051" clip-rule="evenodd"/><path fill="#000" d="m5.888 15.015.009.005v-1.026l-.019-.006c-.113-.034-.434-.131-.86-.131-1.174 0-2.035.837-2.035 1.979 0 1.232.951 1.98 2.035 1.98.406 0 .722-.091.857-.129l.023-.006v-1.026l-.003.002c-.052.029-.363.201-.807.201-.643 0-1.057-.452-1.057-1.02 0-.585.432-1.02 1.057-1.02.435 0 .735.163.801.199m10.076.003-.009-.005c-.066-.036-.366-.199-.801-.199-.625 0-1.057.434-1.057 1.02 0 .568.414 1.021 1.057 1.021.444 0 .756-.173.807-.201l.003-.002v1.026l-.023.007c-.135.039-.451.13-.857.13-1.084 0-2.035-.748-2.035-1.979 0-1.141.862-1.978 2.035-1.978.426 0 .748.097.86.131l.019.006zm-7.777-1.095h-.964v3.822h.965zm1.184-5.903c.264 0 .479.214.479.478v2.32a.479.479 0 0 1-.479.478.479.479 0 0 1-.479-.478V8.5c0-.263.215-.477.479-.477m2.916 1.413a.473.473 0 0 0-.286-.096H12c-.263.001-.478.214-.478.477v1.003a.479.479 0 0 0 .764.385.478.478 0 0 0 .194-.384V9.817a.476.476 0 0 0-.191-.381M15.11 8.5c0-.263-.215-.478-.479-.478s-.479.214-.479.478v2.32c0 .265.215.478.479.478a.479.479 0 0 0 .479-.478zm2.151-2.279c.264 0 .479.214.479.477v5.076a.479.479 0 0 1-.958 0V6.698c0-.263.215-.477.479-.477M20.37 8.5c0-.263-.215-.478-.479-.478s-.479.214-.479.478v2.32c0 .265.215.478.479.478a.479.479 0 0 0 .479-.478zm2.152.84c.262 0 .476.214.476.477v1.003c0 .265-.214.479-.476.479a.479.479 0 0 1-.479-.479V9.817c0-.263.215-.477.479-.477"/></svg>
